public/images/right-left-fill.svg

<?xml version="1.0" encoding="UTF-8" standalone="no"?>
<svg viewBox="0 0 118 59" version="1.1" xmlns="http://www.w3.org/2000/svg" xmlns:xlink="http://www.w3.org/1999/xlink">
    <g id="Page-1" stroke="none" stroke-width="1" fill="none" fill-rule="evenodd">
        <path d="M16.05,42.6 L16.05,16.05 L101.5,16.05 L101.5,42.6 L16.05,42.6 M56.2,22.3 C55.4333333,22.3 54.7833333,22.5666667 54.25,23.1 C53.7166667,23.6333333 53.45,24.2833333 53.45,25.05 C53.45,25.8166667 53.7166667,26.4666667 54.25,27 C54.7833333,27.5333333 55.4333333,27.8 56.2,27.8 C56.9666667,27.8 57.6166667,27.5333333 58.15,27 C58.6833333,26.4666667 58.95,25.8166667 58.95,25.05 C58.95,24.2833333 58.6833333,23.6333333 58.15,23.1 C57.6166667,22.5666667 56.9666667,22.3 56.2,22.3 M37.95,25.15 L37.95,25.3 C37.9833333,26.7333333 38.5,27.95 39.5,28.95 C40.5666667,30.0166667 41.85,30.55 43.35,30.55 C44.5166667,30.55 45.55,30.2333333 46.45,29.6 L47.15,28.95 C48.1833333,27.95 48.7166667,26.7333333 48.75,25.3 L48.75,25.15 C48.75,23.65 48.2166667,22.3666667 47.15,21.3 L46.45,20.7 C45.55,20.0666667 44.5166667,19.75 43.35,19.75 C41.85,19.75 40.5666667,20.2666667 39.5,21.3 C38.4666667,22.3666667 37.95,23.65 37.95,25.15 M85.2,31.85 C84.6666667,32.3833333 84.4,33.0333333 84.4,33.8 C84.4,34.5666667 84.6666667,35.2166667 85.2,35.75 C85.7333333,36.2833333 86.3833333,36.55 87.15,36.55 C87.9166667,36.55 88.5666667,36.2833333 89.1,35.75 C89.6333333,35.2166667 89.9,34.5666667 89.9,33.8 C89.9,33.0333333 89.6333333,32.3833333 89.1,31.85 C88.5666667,31.3166667 87.9166667,31.05 87.15,31.05 C86.3833333,31.05 85.7333333,31.3166667 85.2,31.85" id="Shape" fill="#1EA7E1"></path>
    <path d="M85.2,31.85 C85.7333333,31.3166667 86.3833333,31.05 87.15,31.05 C87.9166667,31.05 88.5666667,31.3166667 89.1,31.85 C89.6333333,32.3833333 89.9,33.0333333 89.9,33.8 C89.9,34.5666667 89.6333333,35.2166667 89.1,35.75 C88.5666667,36.2833333 87.9166667,36.55 87.15,36.55 C86.3833333,36.55 85.7333333,36.2833333 85.2,35.75 C84.6666667,35.2166667 84.4,34.5666667 84.4,33.8 C84.4,33.0333333 84.6666667,32.3833333 85.2,31.85 M37.95,25.15 C37.95,23.65 38.4666667,22.3666667 39.5,21.3 C40.5666667,20.2666667 41.85,19.75 43.35,19.75 C44.5166667,19.75 45.55,20.0666667 46.45,20.7 L47.15,21.3 C48.2166667,22.3666667 48.75,23.65 48.75,25.15 L48.75,25.3 C48.7166667,26.7333333 48.1833333,27.95 47.15,28.95 L46.45,29.6 C45.55,30.2333333 44.5166667,30.55 43.35,30.55 C41.85,30.55 40.5666667,30.0166667 39.5,28.95 C38.5,27.95 37.9833333,26.7333333 37.95,25.3 L37.95,25.15 M56.2,22.3 C56.9666667,22.3 57.6166667,22.5666667 58.15,23.1 C58.6833333,23.6333333 58.95,24.2833333 58.95,25.05 C58.95,25.8166667 58.6833333,26.4666667 58.15,27 C57.6166667,27.5333333 56.9666667,27.8 56.2,27.8 C55.4333333,27.8 54.7833333,27.5333333 54.25,27 C53.7166667,26.4666667 53.45,25.8166667 53.45,25.05 C53.45,24.2833333 53.7166667,23.6333333 54.25,23.1 C54.7833333,22.5666667 55.4333333,22.3 56.2,22.3" id="Shape" fill="#2CB8F3"></path>
    </g>
</svg>

<svg viewBox="0 0 118 59" xmlns="http://www.w3.org/2000/svg"><g fill="none" fill-rule="evenodd"><path d="M16.05 42.6V16.05h85.45V42.6H16.05M56.2 22.3c-.767 0-1.417.267-1.95.8-.533.533-.8 1.183-.8 1.95 0 .767.267 1.417.8 1.95.533.533 1.183.8 1.95.8.767 0 1.417-.267 1.95-.8.533-.533.8-1.183.8-1.95 0-.767-.267-1.417-.8-1.95-.533-.533-1.183-.8-1.95-.8m-18.25 2.85v.15c.033 1.433.55 2.65 1.55 3.65 1.067 1.067 2.35 1.6 3.85 1.6 1.167 0 2.2-.317 3.1-.95l.7-.65c1.033-1 1.567-2.217 1.6-3.65v-.15c0-1.5-.533-2.783-1.6-3.85l-.7-.6c-.9-.633-1.933-.95-3.1-.95-1.5 0-2.783.517-3.85 1.55-1.033 1.067-1.55 2.35-1.55 3.85m47.25 6.7c-.533.533-.8 1.183-.8 1.95 0 .767.267 1.417.8 1.95.533.533 1.183.8 1.95.8.767 0 1.417-.267 1.95-.8.533-.533.8-1.183.8-1.95 0-.767-.267-1.417-.8-1.95-.533-.533-1.183-.8-1.95-.8-.767 0-1.417.267-1.95.8" fill="#1EA7E1"/><path d="M85.2 31.85c.533-.533 1.183-.8 1.95-.8.767 0 1.417.267 1.95.8.533.533.8 1.183.8 1.95 0 .767-.267 1.417-.8 1.95-.533.533-1.183.8-1.95.8-.767 0-1.417-.267-1.95-.8-.533-.533-.8-1.183-.8-1.95 0-.767.267-1.417.8-1.95m-47.25-6.7c0-1.5.517-2.783 1.55-3.85 1.067-1.033 2.35-1.55 3.85-1.55 1.167 0 2.2.317 3.1.95l.7.6c1.067 1.067 1.6 2.35 1.6 3.85v.15c-.033 1.433-.567 2.65-1.6 3.65l-.7.65c-.9.633-1.933.95-3.1.95-1.5 0-2.783-.533-3.85-1.6-1-1-1.517-2.217-1.55-3.65v-.15M56.2 22.3c.767 0 1.417.267 1.95.8.533.533.8 1.183.8 1.95 0 .767-.267 1.417-.8 1.95-.533.533-1.183.8-1.95.8-.767 0-1.417-.267-1.95-.8-.533-.533-.8-1.183-.8-1.95 0-.767.267-1.417.8-1.95.533-.533 1.183-.8 1.95-.8" fill="#2CB8F3"/></g></svg>
